;FLAVOR:Marlin
;TIME:1347
;Filament used: 2.16347m
;Layer height: 0.3
;MINX:10.702
;MINY:11.247
;MINZ:0.3
;MAXX:72.604
;MAXY:61.149
;MAXZ:7.8
;Generated with Cura_SteamEngine 4.7.1
M104 S200
M105
M109 S200
M82 ;absolute extrusion mode
G28 ;Home
G1 Z15.0 F6000 ;Move the platform down 15mm
;Prime the extruder
G92 E0
G1 F200 E3
G92 E0
G92 E0
G92 E0
G1 F1500 E-6.5
;LAYER_COUNT:26
;LAYER:0
M107
G0 F3600 X17.742 Y17.671 Z0.3
;TYPE:SKIRT
G1 F1500 E0
G1 F1800 X19.01 Y16.538 E0.08484
G1 X19.689 Y15.996 E0.12818
G1 X21.075 Y15.011 E0.21301
G1 X21.815 Y14.545 E0.25664
G1 X23.065 Y13.853 E0.32792
G1 X23.36 Y13.693 E0.34466
G1 X24.09 Y13.345 E0.38501
G1 X25.659 Y12.694 E0.46976
G1 X26.483 Y12.405 E0.51332
G1 X27.906 Y11.994 E0.58722
G1 X28.165 Y11.921 E0.60064
G1 X28.971 Y11.739 E0.64187
G1 X30.422 Y11.492 E0.7153
G1 X30.689 Y11.448 E0.7288
G1 X31.509 Y11.357 E0.76996
G1 X32.979 Y11.272 E0.84342
G1 X33.653 Y11.248 E0.87707
G1 X49.653 Y11.247 E1.67531
G1 X50.099 Y11.26 E1.69757
G1 X51.794 Y11.357 E1.78228
G1 X52.65 Y11.454 E1.82526
G1 X54.327 Y11.738 E1.91011
G1 X55.182 Y11.932 E1.95385
G1 X56.815 Y12.402 E2.03863
G1 X57.65 Y12.695 E2.08278
G1 X59.217 Y13.346 E2.16744
G1 X59.995 Y13.72 E2.2105
G1 X61.484 Y14.542 E2.29536
G1 X62.228 Y15.01 E2.33921
G1 X63.612 Y15.992 E2.42387
G1 X64.295 Y16.536 E2.46743
G1 X65.562 Y17.668 E2.5522
G1 X66.182 Y18.288 E2.59594
G1 X67.314 Y19.555 E2.68071
G1 X67.858 Y20.237 E2.72423
G1 X68.841 Y21.622 E2.80896
G1 X69.305 Y22.361 E2.8525
G1 X70.136 Y23.865 E2.93823
G1 X70.508 Y24.637 E2.98098
G1 X71.158 Y26.204 E3.06562
G1 X71.446 Y27.028 E3.10916
G1 X71.857 Y28.451 E3.18306
G1 X71.93 Y28.71 E3.19648
G1 X72.112 Y29.512 E3.23751
G1 X72.359 Y30.958 E3.3107
G1 X72.403 Y31.223 E3.3241
G1 X72.495 Y32.059 E3.36606
G1 X72.578 Y33.523 E3.43922
G1 X72.603 Y34.195 E3.47277
G1 X72.604 Y38.196 E3.67238
G1 X72.592 Y38.639 E3.69449
G1 X72.496 Y40.335 E3.77924
G1 X72.398 Y41.199 E3.82262
G1 X72.114 Y42.872 E3.90728
G1 X71.92 Y43.723 E3.95082
G1 X71.45 Y45.357 E4.03565
G1 X71.157 Y46.194 E4.07989
G1 X70.505 Y47.763 E4.16466
G1 X70.132 Y48.538 E4.20757
G1 X69.31 Y50.028 E4.29247
G1 X68.84 Y50.776 E4.33654
G1 X67.858 Y52.159 E4.42116
G1 X67.317 Y52.837 E4.46444
G1 X66.186 Y54.104 E4.54917
G1 X65.564 Y54.726 E4.59306
G1 X64.296 Y55.859 E4.67789
G1 X63.61 Y56.406 E4.72166
G1 X62.222 Y57.39 E4.80655
G1 X61.493 Y57.849 E4.84953
G1 X60.204 Y58.563 E4.92304
G1 X59.968 Y58.692 E4.93646
G1 X59.212 Y59.054 E4.97828
G1 X57.643 Y59.704 E5.06301
G1 X56.823 Y59.991 E5.10635
G1 X55.4 Y60.402 E5.18025
G1 X55.141 Y60.475 E5.19367
G1 X54.339 Y60.657 E5.2347
G1 X52.883 Y60.905 E5.30839
G1 X52.616 Y60.949 E5.32189
G1 X51.791 Y61.04 E5.3633
G1 X50.327 Y61.124 E5.43646
G1 X49.653 Y61.148 E5.4701
G1 X33.653 Y61.149 E6.26835
G1 X33.212 Y61.137 E6.29036
G1 X31.516 Y61.041 E6.37511
G1 X30.649 Y60.943 E6.41864
G1 X28.973 Y60.658 E6.50345
G1 X28.124 Y60.464 E6.5469
G1 X26.491 Y59.994 E6.63168
G1 X25.659 Y59.703 E6.67565
G1 X24.092 Y59.053 E6.76029
G1 X23.31 Y58.676 E6.8036
G1 X21.82 Y57.853 E6.88852
G1 X21.077 Y57.386 E6.93231
G1 X19.693 Y56.404 E7.01697
G1 X19.01 Y55.859 E7.06056
G1 X17.742 Y54.726 E7.1454
G1 X17.122 Y54.107 E7.18911
G1 X15.99 Y52.84 E7.27387
G1 X15.446 Y52.158 E7.3174
G1 X14.463 Y50.773 E7.40213
G1 X14 Y50.036 E7.44555
G1 X13.287 Y48.747 E7.51904
G1 X13.157 Y48.509 E7.53257
G1 X12.796 Y47.755 E7.57428
G1 X12.146 Y46.186 E7.65901
G1 X11.858 Y45.364 E7.70246
G1 X11.45 Y43.949 E7.77593
G1 X11.376 Y43.687 E7.78952
G1 X11.193 Y42.879 E7.83085
G1 X10.946 Y41.429 E7.90423
G1 X10.902 Y41.162 E7.91773
G1 X10.811 Y40.336 E7.95919
G1 X10.728 Y38.873 E8.0323
G1 X10.703 Y38.201 E8.06585
G1 X10.702 Y34.2 E8.26546
G1 X10.714 Y33.757 E8.28757
G1 X10.81 Y32.062 E8.37227
G1 X10.908 Y31.198 E8.41565
G1 X11.192 Y29.524 E8.50036
G1 X11.386 Y28.673 E8.5439
G1 X11.856 Y27.039 E8.62873
G1 X12.148 Y26.206 E8.67277
G1 X12.799 Y24.637 E8.75751
G1 X13.176 Y23.853 E8.80092
G1 X13.999 Y22.364 E8.88579
G1 X14.462 Y21.626 E8.92926
G1 X15.443 Y20.242 E9.01389
G1 X15.992 Y19.554 E9.05781
G1 X17.124 Y18.288 E9.14253
G1 X17.742 Y17.671 E9.1861
G0 F3600 X18.008 Y17.969
G1 F1800 X19.276 Y16.836 E9.27094
G1 X19.92 Y16.322 E9.31205
G1 X21.306 Y15.337 E9.39688
G1 X22.009 Y14.895 E9.43831
G1 X23.315 Y14.172 E9.51278
G1 X23.551 Y14.044 E9.52618
G1 X24.243 Y13.714 E9.56442
G1 X25.812 Y13.063 E9.64917
G1 X26.594 Y12.789 E9.69051
G1 X28.015 Y12.379 E9.7643
G1 X28.274 Y12.306 E9.77772
G1 X29.038 Y12.133 E9.8168
G1 X30.487 Y11.886 E9.89014
G1 X30.754 Y11.842 E9.90364
G1 X31.532 Y11.756 E9.94269
G1 X33 Y11.672 E10.01605
G1 X33.653 Y11.648 E10.04865
G1 X49.653 Y11.647 E10.84689
G1 X50.076 Y11.659 E10.868
G1 X51.771 Y11.756 E10.95271
G1 X52.584 Y11.848 E10.99353
G1 X54.261 Y12.132 E11.07838
G1 X55.072 Y12.317 E11.11988
G1 X56.705 Y12.787 E11.20466
G1 X57.497 Y13.064 E11.24652
G1 X59.064 Y13.715 E11.33118
G1 X59.801 Y14.071 E11.37201
G1 X61.29 Y14.893 E11.45687
G1 X61.996 Y15.336 E11.49845
G1 X63.38 Y16.318 E11.58311
G1 X64.028 Y16.835 E11.62447
G1 X65.295 Y17.967 E11.70923
G1 X65.883 Y18.555 E11.75072
G1 X67.015 Y19.822 E11.83548
G1 X67.532 Y20.469 E11.8768
G1 X68.515 Y21.854 E11.96154
G1 X68.955 Y22.555 E12.00283
G1 X69.786 Y24.058 E12.08851
G1 X70.138 Y24.791 E12.12908
G1 X70.788 Y26.358 E12.21372
G1 X71.062 Y27.139 E12.25501
G1 X71.472 Y28.56 E12.32879
G1 X71.545 Y28.819 E12.34222
G1 X71.717 Y29.579 E12.38109
G1 X71.964 Y31.024 E12.45423
G1 X72.008 Y31.289 E12.46763
G1 X72.096 Y32.082 E12.50744
G1 X72.179 Y33.543 E12.58045
G1 X72.203 Y34.195 E12.613
G1 X72.204 Y38.196 E12.81261
G1 X72.192 Y38.616 E12.83357
G1 X72.096 Y40.312 E12.91832
G1 X72.004 Y41.132 E12.95949
G1 X71.72 Y42.805 E13.04415
G1 X71.536 Y43.613 E13.08549
G1 X71.066 Y45.247 E13.17032
G1 X70.787 Y46.041 E13.2123
G1 X70.135 Y47.61 E13.29707
G1 X69.781 Y48.345 E13.33777
G1 X68.959 Y49.835 E13.42267
G1 X68.514 Y50.544 E13.46443
G1 X67.532 Y51.927 E13.54905
G1 X67.018 Y52.571 E13.59016
G1 X65.887 Y53.838 E13.67489
G1 X65.298 Y54.428 E13.71649
G1 X64.03 Y55.561 E13.80132
G1 X63.379 Y56.08 E13.84286
G1 X61.991 Y57.064 E13.92774
G1 X61.299 Y57.499 E13.96852
G1 X60.012 Y58.212 E14.04192
G1 X59.776 Y58.341 E14.05534
G1 X59.059 Y58.685 E14.09502
G1 X57.49 Y59.335 E14.17975
G1 X56.712 Y59.607 E14.22087
G1 X55.291 Y60.017 E14.29465
G1 X55.032 Y60.09 E14.30808
G1 X54.272 Y60.262 E14.34695
G1 X52.818 Y60.511 E14.42055
G1 X52.551 Y60.555 E14.43405
G1 X51.768 Y60.641 E14.47335
G1 X50.306 Y60.724 E14.5464
G1 X49.653 Y60.748 E14.579
G1 X33.653 Y60.749 E15.37725
G1 X33.235 Y60.737 E15.39811
G1 X31.539 Y60.641 E15.48286
G1 X30.716 Y60.548 E15.52418
G1 X29.04 Y60.263 E15.609
G1 X28.234 Y60.079 E15.65024
G1 X26.601 Y59.609 E15.73502
G1 X25.813 Y59.333 E15.77668
G1 X24.246 Y58.683 E15.86131
G1 X23.503 Y58.326 E15.90244
G1 X22.013 Y57.503 E15.98736
G1 X21.309 Y57.06 E16.02886
G1 X19.925 Y56.078 E16.11352
G1 X19.276 Y55.561 E16.15492
G1 X18.008 Y54.428 E16.23975
G1 X17.421 Y53.84 E16.28121
G1 X16.289 Y52.573 E16.36597
G1 X15.772 Y51.926 E16.40729
G1 X14.789 Y50.541 E16.49202
G1 X14.35 Y49.842 E16.5332
G1 X13.638 Y48.555 E16.60658
G1 X13.508 Y48.317 E16.62011
G1 X13.165 Y47.602 E16.65967
G1 X12.515 Y46.033 E16.7444
G1 X12.242 Y45.253 E16.78563
G1 X11.835 Y43.84 E16.85899
G1 X11.761 Y43.578 E16.87258
G1 X11.588 Y42.812 E16.91176
G1 X11.34 Y41.364 E16.98505
G1 X11.296 Y41.097 E16.99855
G1 X11.21 Y40.314 E17.03785
G1 X11.127 Y38.853 E17.11085
G1 X11.103 Y38.201 E17.1434
G1 X11.102 Y34.2 E17.34302
G1 X11.114 Y33.78 E17.36398
G1 X11.21 Y32.085 E17.44868
G1 X11.302 Y31.265 E17.48984
G1 X11.586 Y29.591 E17.57455
G1 X11.77 Y28.783 E17.6159
G1 X12.24 Y27.149 E17.70072
G1 X12.517 Y26.359 E17.74249
G1 X13.168 Y24.79 E17.82724
G1 X13.526 Y24.046 E17.86843
G1 X14.349 Y22.557 E17.95331
G1 X14.789 Y21.858 E17.99451
G1 X15.77 Y20.474 E18.07915
G1 X16.291 Y19.821 E18.12083
G1 X17.423 Y18.555 E18.20555
G1 X18.008 Y17.969 E18.24686
G0 F3600 X18.275 Y18.267
G1 F1800 X19.543 Y17.134 E18.3317
G1 X20.152 Y16.648 E18.37057
G1 X21.538 Y15.663 E18.4554
G1 X22.203 Y15.245 E18.49459
G1 X23.506 Y14.524 E18.56888
G1 X23.742 Y14.396 E18.58228
G1 X24.396 Y14.083 E18.61845
G1 X25.965 Y13.432 E18.7032
G1 X26.705 Y13.173 E18.74231
G1 X28.123 Y12.764 E18.81594
G1 X28.382 Y12.691 E18.82937
G1 X29.106 Y12.527 E18.8664
G1 X30.552 Y12.281 E18.93958
G1 X30.819 Y12.237 E18.95308
G1 X31.555 Y12.156 E18.99002
G1 X33.021 Y12.071 E19.06328
G1 X33.653 Y12.048 E19.09484
G1 X49.653 Y12.047 E19.89308
G1 X50.053 Y12.058 E19.91304
G1 X51.748 Y12.155 E19.99774
G1 X52.517 Y12.242 E20.03636
G1 X54.194 Y12.526 E20.12121
G1 X54.961 Y12.701 E20.16046
G1 X56.594 Y13.171 E20.24524
G1 X57.344 Y13.434 E20.28489
G1 X58.911 Y14.085 E20.36955
G1 X59.608 Y14.421 E20.40815
G1 X61.097 Y15.243 E20.493
G1 X61.765 Y15.662 E20.53234
G1 X63.149 Y16.644 E20.61701
G1 X63.762 Y17.133 E20.65613
G1 X65.029 Y18.265 E20.74089
G1 X65.585 Y18.821 E20.78012
G1 X66.717 Y20.088 E20.86489
G1 X67.205 Y20.701 E20.90398
G1 X68.188 Y22.086 E20.98871
G1 X68.605 Y22.749 E21.02779
G1 X69.435 Y24.251 E21.1134
G1 X69.769 Y24.944 E21.15178
G1 X70.419 Y26.511 E21.23642
G1 X70.678 Y27.25 E21.27549
G1 X71.087 Y28.668 E21.34912
G1 X71.16 Y28.927 E21.36254
G1 X71.323 Y29.647 E21.39937
G1 X71.569 Y31.089 E21.47235
G1 X71.613 Y31.354 E21.48575
G1 X71.697 Y32.104 E21.5234
G1 X71.78 Y33.564 E21.59636
G1 X71.803 Y34.195 E21.62786
G1 X71.804 Y38.196 E21.82747
G1 X71.793 Y38.594 E21.84734
G1 X71.697 Y40.29 E21.93209
G1 X71.609 Y41.066 E21.97105
G1 X71.325 Y42.739 E22.05571
G1 X71.151 Y43.502 E22.09475
G1 X70.681 Y45.136 E22.17958
G1 X70.418 Y45.887 E22.21928
G1 X69.766 Y47.456 E22.30405
G1 X69.431 Y48.151 E22.34254
G1 X68.609 Y49.641 E22.42744
G1 X68.188 Y50.313 E22.467
G1 X67.206 Y51.696 E22.55162
G1 X66.72 Y52.305 E22.59049
G1 X65.589 Y53.572 E22.67522
G1 X65.031 Y54.13 E22.71459
G1 X63.763 Y55.263 E22.79943
G1 X63.147 Y55.754 E22.83873
G1 X61.759 Y56.738 E22.92361
G1 X61.106 Y57.149 E22.96211
G1 X59.82 Y57.861 E23.03544
G1 X59.584 Y57.99 E23.04886
G1 X58.906 Y58.315 E23.08637
G1 X57.337 Y58.965 E23.1711
G1 X56.601 Y59.223 E23.21001
G1 X55.183 Y59.632 E23.28364
G1 X54.924 Y59.705 E23.29707
G1 X54.204 Y59.868 E23.3339
G1 X52.753 Y60.116 E23.40734
G1 X52.486 Y60.16 E23.42084
G1 X51.745 Y60.242 E23.45803
G1 X50.285 Y60.325 E23.53099
G1 X49.653 Y60.348 E23.56254
G1 X33.653 Y60.349 E24.36078
G1 X33.257 Y60.338 E24.38055
G1 X31.561 Y60.242 E24.4653
G1 X30.784 Y60.154 E24.50431
G1 X29.108 Y59.869 E24.58912
G1 X28.345 Y59.695 E24.62817
G1 X26.712 Y59.225 E24.71295
G1 X25.966 Y58.964 E24.75238
G1 X24.399 Y58.314 E24.83701
G1 X23.697 Y57.975 E24.87591
G1 X22.207 Y57.152 E24.96083
G1 X21.54 Y56.734 E25.0001
G1 X20.156 Y55.752 E25.08476
G1 X19.543 Y55.263 E25.12388
G1 X18.275 Y54.13 E25.20872
G1 X17.719 Y53.574 E25.24795
G1 X16.587 Y52.307 E25.33271
G1 X16.099 Y51.694 E25.3718
G1 X15.116 Y50.309 E25.45654
G1 X14.7 Y49.648 E25.4955
G1 X13.989 Y48.364 E25.56873
G1 X13.859 Y48.126 E25.58226
G1 X13.535 Y47.449 E25.6197
G1 X12.885 Y45.88 E25.70443
G1 X12.627 Y45.142 E25.74343
G1 X12.22 Y43.732 E25.81665
G1 X12.146 Y43.47 E25.83023
G1 X11.982 Y42.745 E25.86732
G1 X11.735 Y41.299 E25.9405
G1 X11.691 Y41.032 E25.954
G1 X11.609 Y40.291 E25.9912
G1 X11.526 Y38.832 E26.06411
G1 X11.503 Y38.201 E26.09561
G1 X11.502 Y34.2 E26.29522
G1 X11.513 Y33.802 E26.31508
G1 X11.609 Y32.107 E26.39978
G1 X11.697 Y31.332 E26.43869
G1 X11.981 Y29.658 E26.5234
G1 X12.155 Y28.894 E26.5625
G1 X12.625 Y27.26 E26.64732
G1 X12.886 Y26.512 E26.68685
G1 X13.537 Y24.943 E26.7716
G1 X13.877 Y24.24 E26.81055
G1 X14.7 Y22.751 E26.89543
G1 X15.115 Y22.089 E26.93441
G1 X16.096 Y20.705 E27.01905
G1 X16.589 Y20.087 E27.05849
G1 X17.721 Y18.821 E27.14322
G1 X18.275 Y18.267 E27.1823
G0 F3600 X18.541 Y18.565
G1 F1800 X19.809 Y17.432 E27.26714
G1 X20.384 Y16.974 E27.30381
G1 X21.77 Y15.989 E27.38865
G1 X22.396 Y15.595 E27.42555
G1 X23.696 Y14.875 E27.49969
G1 X23.932 Y14.747 E27.51308
G1 X24.55 Y14.453 E27.54723
G1 X26.119 Y13.802 E27.63197
G1 X26.816 Y13.557 E27.66883
G1 X28.19 Y13.16 E27.74019
G1 X28.491 Y13.076 E27.75578
G1 X29.173 Y12.922 E27.79066
G1 X30.617 Y12.676 E27.86374
G1 X30.884 Y12.632 E27.87724
G1 X31.578 Y12.555 E27.91208
G1 X33.041 Y12.471 E27.98518
G1 X33.653 Y12.448 E28.01574
G1 X49.653 Y12.447 E28.81398
G1 X50.03 Y12.458 E28.8328
G1 X51.725 Y12.555 E28.9175
G1 X52.45 Y12.637 E28.9539
G1 X54.127 Y12.921 E29.03876
G1 X54.85 Y13.085 E29.07575
G1 X56.483 Y13.555 E29.16052
G1 X57.19 Y13.803 E29.1979
G1 X58.757 Y14.454 E29.28256
G1 X59.415 Y14.771 E29.319
G1 X60.904 Y15.593 E29.40385
G1 X61.533 Y15.988 E29.44091
G1 X62.917 Y16.97 E29.52557
G1 X63.495 Y17.431 E29.56246
G1 X64.762 Y18.563 E29.64722
G1 X65.287 Y19.088 E29.68426
G1 X66.419 Y20.355 E29.76903
G1 X66.879 Y20.932 E29.80584
G1 X67.862 Y22.317 E29.89058
G1 X68.255 Y22.942 E29.92741
G1 X69.085 Y24.443 E30.01298
G1 X69.399 Y25.097 E30.04918
G1 X70.049 Y26.664 E30.13381
G1 X70.294 Y27.361 E30.17067
G1 X70.691 Y28.735 E30.24203
G1 X70.775 Y29.036 E30.25762
G1 X70.929 Y29.714 E30.2923
G1 X71.175 Y31.155 E30.36523
G1 X71.219 Y31.42 E30.37864
G1 X71.297 Y32.127 E30.41412
G1 X71.38 Y33.585 E30.48698
G1 X71.403 Y34.195 E30.51744
G1 X71.404 Y38.196 E30.71705
G1 X71.393 Y38.571 E30.73576
G1 X71.297 Y40.267 E30.82051
G1 X71.215 Y40.999 E30.85726
G1 X70.931 Y42.672 E30.94192
G1 X70.767 Y43.391 E30.97871
G1 X70.297 Y45.025 E31.06354
G1 X70.049 Y45.734 E31.10101
G1 X69.397 Y47.303 E31.18578
G1 X69.081 Y47.958 E31.22206
G1 X68.259 Y49.448 E31.30696
G1 X67.861 Y50.081 E31.34426
G1 X66.879 Y51.464 E31.42889
G1 X66.422 Y52.038 E31.46549
G1 X65.291 Y53.305 E31.55022
G1 X64.765 Y53.832 E31.58737
G1 X63.497 Y54.965 E31.67221
G1 X62.916 Y55.427 E31.70924
G1 X61.528 Y56.411 E31.79412
G1 X60.912 Y56.799 E31.83044
G1 X59.629 Y57.51 E31.90363
G1 X59.393 Y57.639 E31.91704
G1 X58.753 Y57.945 E31.95244
G1 X57.184 Y58.595 E32.03716
G1 X56.49 Y58.839 E32.07387
G1 X55.116 Y59.236 E32.14522
G1 X54.815 Y59.32 E32.16081
G1 X54.137 Y59.474 E32.1955
G1 X52.688 Y59.721 E32.26883
G1 X52.421 Y59.765 E32.28233
G1 X51.723 Y59.842 E32.31737
G1 X50.265 Y59.925 E32.39022
G1 X49.653 Y59.948 E32.42078
G1 X33.653 Y59.949 E33.21902
G1 X33.28 Y59.938 E33.23764
G1 X31.584 Y59.842 E33.32239
G1 X30.851 Y59.76 E33.35918
G1 X29.175 Y59.475 E33.444
G1 X28.456 Y59.311 E33.48079
G1 X26.823 Y58.841 E33.56557
G1 X26.119 Y58.594 E33.60279
G1 X24.552 Y57.944 E33.68743
G1 X23.89 Y57.625 E33.72409
G1 X22.4 Y56.802 E33.80901
G1 X21.772 Y56.408 E33.846
G1 X20.388 Y55.426 E33.93066
G1 X19.809 Y54.965 E33.96759
G1 X18.541 Y53.832 E34.05242
G1 X18.017 Y53.307 E34.08943
G1 X16.885 Y52.04 E34.1742
G1 X16.425 Y51.463 E34.21101
G1 X15.442 Y50.078 E34.29574
G1 X15.05 Y49.455 E34.33247
G1 X14.34 Y48.172 E34.40562
G1 X14.21 Y47.934 E34.41915
G1 X13.905 Y47.296 E34.45443
G1 X13.255 Y45.727 E34.53916
G1 X13.011 Y45.031 E34.57596
G1 X12.604 Y43.623 E34.64908
G1 X12.53 Y43.361 E34.66266
G1 X12.376 Y42.678 E34.69759
G1 X12.13 Y41.234 E34.77067
G1 X12.086 Y40.967 E34.78417
G1 X12.009 Y40.268 E34.81926
G1 X11.926 Y38.811 E34.89206
G1 X11.903 Y38.201 E34.92252
G1 X11.902 Y34.2 E35.12213
G1 X11.913 Y33.825 E35.14085
G1 X12.009 Y32.13 E35.22554
G1 X12.091 Y31.399 E35.26224
G1 X12.375 Y29.725 E35.34695
G1 X12.539 Y29.005 E35.38379
G1 X13.009 Y27.371 E35.46862
G1 X13.256 Y26.666 E35.50589
G1 X13.907 Y25.097 E35.59064
G1 X14.227 Y24.433 E35.62741
G1 X15.05 Y22.944 E35.71229
G1 X15.441 Y22.32 E35.74903
G1 X16.422 Y20.936 E35.83366
G1 X16.887 Y20.354 E35.87083
G1 X18.019 Y19.088 E35.95555
G1 X18.541 Y18.565 E35.99242
G0 F3600 X18.808 Y18.864
G1 F1800 X20.076 Y17.731 E36.07726
G1 X20.615 Y17.3 E36.11169
G1 X22.001 Y16.315 E36.19652
G1 X22.59 Y15.945 E36.23122
G1 X23.887 Y15.227 E36.30518
G1 X24.123 Y15.099 E36.31858
G1 X24.703 Y14.822 E36.35064
G1 X26.272 Y14.171 E36.43539
G1 X26.927 Y13.942 E36.47001
G1 X28.34 Y13.534 E36.54338
G1 X28.599 Y13.461 E36.55681
G1 X29.24 Y13.316 E36.5896
G1 X30.682 Y13.071 E36.66257
G1 X30.949 Y13.027 E36.67607
G1 X31.601 Y12.954 E36.7088
G1 X33.062 Y12.87 E36.78181
G1 X33.653 Y12.848 E36.81132
G1 X49.653 Y12.847 E37.60956
G1 X50.007 Y12.857 E37.62723
