;FLAVOR:Marlin
;TIME:8404
;Filament used: 17.0889m
;Layer height: 0.3
;MINX:12.843
;MINY:30.61
;MINZ:0.3
;MAXX:159.157
;MAXY:169.39
;MAXZ:4.8
;Generated with Cura_SteamEngine 4.7.1
M104 S230
M105
M109 S230
M82 ;absolute extrusion mode
G28 ;Home
G1 Z15.0 F6000 ;Move the platform down 15mm
;Prime the extruder
G92 E0
G1 F200 E3
G92 E0
G92 E0
G92 E0
G1 F1500 E-6.5
;LAYER_COUNT:16
;LAYER:0
M107
G0 F3600 X32.785 Y65.049 Z0.3
;TYPE:SKIRT
G1 F1500 E0
G1 F2400 X35.17 Y63.817 E0.13393
G1 X37.54 Y62.507 E0.26903
G1 X39.859 Y61.136 E0.40343
G1 X42.127 Y59.709 E0.53711
G1 X44.357 Y58.215 E0.67103
G1 X46.566 Y56.643 E0.80629
G1 X48.715 Y55.02 E0.94065
G1 X50.804 Y53.349 E1.07411
G1 X52.845 Y51.618 E1.20763
G1 X54.878 Y49.793 E1.34392
G1 X56.822 Y47.947 E1.47767
G1 X58.722 Y46.036 E1.61212
G1 X60.564 Y44.074 E1.74638
G1 X62.337 Y42.078 E1.87957
G1 X64.083 Y39.996 E2.01513
G1 X65.75 Y37.891 E2.1491
G1 X67.809 Y35.113 E2.32161
G1 X68.141 Y34.675 E2.34903
G1 X68.449 Y34.293 E2.37351
G1 X68.867 Y33.844 E2.40412
G1 X69.429 Y33.313 E2.44269
G1 X69.789 Y32.993 E2.46672
G1 X70.316 Y32.591 E2.49979
G1 X70.843 Y32.246 E2.53121
G1 X71.259 Y31.989 E2.55561
G1 X71.866 Y31.672 E2.58977
G1 X72.362 Y31.456 E2.61676
G1 X72.881 Y31.245 E2.64471
G1 X73.577 Y31.02 E2.68121
G1 X74.172 Y30.876 E2.71175
G1 X74.666 Y30.77 E2.73696
G1 X75.328 Y30.675 E2.77032
G1 X75.841 Y30.638 E2.79598
G1 X76.459 Y30.61 E2.82685
G1 X77 Y30.618 E2.85384
G1 X77.556 Y30.658 E2.88165
G1 X79.391 Y30.812 E2.97352
G1 X82.122 Y30.962 E3.10998
G1 X84.783 Y31.034 E3.24278
G1 X87.48 Y31.03 E3.37734
G1 X90.178 Y30.95 E3.512
G1 X92.855 Y30.794 E3.64578
G1 X94.65 Y30.642 E3.73566
G1 X95.015 Y30.617 E3.75391
G1 X95.542 Y30.61 E3.7802
G1 X96.12 Y30.634 E3.80906
G1 X96.614 Y30.669 E3.83377
G1 X97.233 Y30.758 E3.86497
G1 X98.003 Y30.92 E3.90423
G1 X98.467 Y31.032 E3.92804
G1 X99.095 Y31.236 E3.96098
G1 X99.577 Y31.43 E3.98691
G1 X100.125 Y31.667 E4.01669
G1 X100.723 Y31.98 E4.05037
G1 X101.187 Y32.266 E4.07756
G1 X101.697 Y32.6 E4.10797
G1 X102.228 Y33.008 E4.14138
G1 X102.682 Y33.411 E4.17167
G1 X103.045 Y33.749 E4.19642
G1 X103.498 Y34.234 E4.22953
G1 X103.82 Y34.63 E4.25499
G1 X104.209 Y35.139 E4.28695
G1 X105.939 Y37.482 E4.43225
G1 X107.593 Y39.596 E4.56617
G1 X109.325 Y41.684 E4.70151
G1 X111.087 Y43.689 E4.83468
G1 X112.936 Y45.678 E4.97017
G1 X114.805 Y47.579 E5.10317
G1 X116.75 Y49.446 E5.23767
G1 X118.774 Y51.283 E5.37404
G1 X120.791 Y53.013 E5.50661
G1 X122.888 Y54.71 E5.6412
G1 X125.033 Y56.346 E5.77579
G1 X127.229 Y57.927 E5.91079
G1 X129.429 Y59.418 E6.04338
G1 X131.738 Y60.889 E6.17996
G1 X134.016 Y62.251 E6.31238
G1 X136.377 Y63.574 E6.4474
G1 X138.767 Y64.826 E6.58201
G1 X141.178 Y66.002 E6.71584
G1 X144.067 Y67.305 E6.87395
G1 X145.037 Y67.724 E6.92667
G1 X145.399 Y67.899 E6.94673
G1 X146.043 Y68.244 E6.98318
G1 X146.854 Y68.692 E7.0294
G1 X147.438 Y69.026 E7.06297
G1 X147.81 Y69.26 E7.08489
G1 X148.383 Y69.656 E7.11964
G1 X149.127 Y70.186 E7.16522
G1 X149.701 Y70.605 E7.20067
G1 X150.018 Y70.857 E7.22087
G1 X150.6 Y71.363 E7.25935
G1 X151.27 Y71.962 E7.30419
G1 X151.762 Y72.412 E7.33745
G1 X152.097 Y72.748 E7.36112
G1 X152.532 Y73.221 E7.39318
G1 X153.2 Y73.969 E7.44322
G1 X153.632 Y74.465 E7.47603
G1 X153.887 Y74.785 E7.49645
G1 X154.311 Y75.365 E7.53229
G1 X154.86 Y76.139 E7.57963
G1 X155.269 Y76.734 E7.61565
G1 X155.483 Y77.075 E7.63574
G1 X155.844 Y77.709 E7.67214
G1 X156.262 Y78.467 E7.71532
G1 X156.619 Y79.136 E7.75315
G1 X156.789 Y79.489 E7.7727
G1 X157.071 Y80.143 E7.80823
G1 X157.442 Y81.039 E7.85662
G1 X157.682 Y81.64 E7.8889
G1 X157.815 Y82.018 E7.90889
G1 X158.041 Y82.761 E7.94764
G1 X158.296 Y83.649 E7.99373
G1 X158.477 Y84.311 E8.02797
G1 X158.579 Y84.761 E8.05099
G1 X158.702 Y85.435 E8.08517
G1 X158.854 Y86.332 E8.13056
G1 X158.964 Y87.04 E8.16631
G1 X159.009 Y87.437 E8.18624
G1 X159.063 Y88.2 E8.2244
G1 X159.113 Y89.103 E8.26952
G1 X159.143 Y89.801 E8.30438
G1 X159.147 Y89.943 E8.31147
G1 X159.156 Y90.685 E8.34849
G1 X159.157 Y109.359 E9.28014
G1 X159.147 Y110.063 E9.31526
G1 X159.143 Y110.192 E9.3217
G1 X159.11 Y110.971 E9.3606
G1 X159.05 Y112.038 E9.41392
G1 X159.001 Y112.647 E9.4444
G1 X158.935 Y113.171 E9.47075
G1 X158.914 Y113.309 E9.47771
G1 X158.699 Y114.579 E9.54197
G1 X158.569 Y115.287 E9.57789
G1 X158.479 Y115.681 E9.59805
G1 X158.286 Y116.388 E9.63461
G1 X158.032 Y117.27 E9.68041
G1 X157.819 Y117.969 E9.71686
G1 X157.688 Y118.343 E9.73663
G1 X157.418 Y119.021 E9.77304
G1 X157.116 Y119.75 E9.81241
G1 X156.786 Y120.514 E9.85393
G1 X156.596 Y120.908 E9.87575
G1 X156.258 Y121.538 E9.91142
G1 X155.849 Y122.279 E9.95365
G1 X155.502 Y122.887 E9.98857
G1 X155.243 Y123.307 E10.01319
G1 X154.837 Y123.893 E10.04876
G1 X154.307 Y124.64 E10.09445
G1 X153.886 Y125.215 E10.13001
G1 X153.638 Y125.525 E10.14981
G1 X153.136 Y126.103 E10.18801
G1 X152.566 Y126.739 E10.23061
G1 X152.077 Y127.272 E10.2667
G1 X151.749 Y127.6 E10.28984
G1 X151.3 Y128.013 E10.32028
G1 X150.557 Y128.675 E10.36993
G1 X150.034 Y129.131 E10.40455
G1 X149.679 Y129.414 E10.4272
G1 X149.125 Y129.818 E10.4614
G1 X148.37 Y130.353 E10.50757
G1 X147.787 Y130.755 E10.5429
G1 X147.444 Y130.97 E10.56309
G1 X146.803 Y131.336 E10.59992
G1 X146.023 Y131.767 E10.64438
G1 X145.37 Y132.117 E10.68134
G1 X144.995 Y132.297 E10.7021
G1 X144.152 Y132.659 E10.74787
G1 X141.648 Y133.779 E10.88472
G1 X139.215 Y134.951 E11.01945
G1 X136.83 Y136.183 E11.15338
G1 X134.46 Y137.493 E11.28848
G1 X132.141 Y138.864 E11.42288
G1 X129.873 Y140.291 E11.55656
G1 X127.643 Y141.785 E11.69048
G1 X125.434 Y143.357 E11.82574
G1 X123.307 Y144.964 E11.95874
G1 X121.171 Y146.671 E12.09516
G1 X119.158 Y148.379 E12.22686
G1 X117.123 Y150.206 E12.3633
G1 X115.178 Y152.054 E12.49716
G1 X113.278 Y153.965 E12.6316
G1 X111.436 Y155.926 E12.76583
G1 X109.663 Y157.922 E12.89902
G1 X107.917 Y160.004 E13.03458
G1 X106.25 Y162.109 E13.16855
G1 X104.191 Y164.887 E13.34106
G1 X103.859 Y165.325 E13.36848
G1 X103.551 Y165.707 E13.39296
G1 X103.133 Y166.156 E13.42356
G1 X102.571 Y166.687 E13.46214
G1 X102.211 Y167.006 E13.48614
G1 X101.68 Y167.411 E13.51945
G1 X101.159 Y167.751 E13.55049
G1 X100.742 Y168.009 E13.57496
G1 X100.137 Y168.326 E13.60903
G1 X99.642 Y168.542 E13.63598
G1 X99.124 Y168.753 E13.66388
G1 X98.42 Y168.982 E13.70082
G1 X97.82 Y169.127 E13.73161
G1 X97.327 Y169.232 E13.75676
G1 X96.672 Y169.325 E13.78976
G1 X96.159 Y169.362 E13.81542
G1 X95.541 Y169.39 E13.84629
G1 X95 Y169.382 E13.87328
G1 X94.444 Y169.342 E13.90109
G1 X92.609 Y169.188 E13.99296
G1 X89.878 Y169.038 E14.12942
G1 X87.217 Y168.966 E14.26223
G1 X84.52 Y168.97 E14.39678
G1 X81.822 Y169.05 E14.53144
G1 X79.145 Y169.206 E14.66522
G1 X77.35 Y169.358 E14.7551
G1 X76.985 Y169.383 E14.77335
G1 X76.458 Y169.39 E14.79965
G1 X75.88 Y169.366 E14.82851
G1 X75.386 Y169.331 E14.85321
G1 X74.767 Y169.242 E14.88441
G1 X73.997 Y169.08 E14.92367
G1 X73.53 Y168.967 E14.94764
G1 X72.909 Y168.765 E14.98022
G1 X72.426 Y168.571 E15.00619
G1 X71.875 Y168.333 E15.03613
G1 X71.277 Y168.02 E15.06981
G1 X70.813 Y167.734 E15.097
G1 X70.3 Y167.397 E15.12762
G1 X69.772 Y166.992 E15.16082
G1 X69.321 Y166.592 E15.1909
G1 X68.952 Y166.249 E15.21603
G1 X68.491 Y165.756 E15.2497
G1 X68.174 Y165.365 E15.27482
G1 X67.789 Y164.861 E15.30646
G1 X67.655 Y164.676 E15.31786
G1 X66.079 Y162.542 E15.45021
G1 X64.394 Y160.39 E15.58657
G1 X62.671 Y158.31 E15.72132
G1 X60.915 Y156.314 E15.85395
G1 X59.064 Y154.323 E15.98958
G1 X57.144 Y152.372 E16.12614
G1 X55.25 Y150.554 E16.25712
G1 X53.225 Y148.716 E16.39356
G1 X51.209 Y146.987 E16.52606
G1 X49.095 Y145.276 E16.66174
G1 X46.985 Y143.667 E16.79413
G1 X44.794 Y142.089 E16.92884
G1 X42.546 Y140.566 E17.0643
G1 X40.262 Y139.111 E17.19941
G1 X37.984 Y137.749 E17.33183
G1 X35.623 Y136.426 E17.46685
G1 X33.233 Y135.174 E17.60146
G1 X30.822 Y133.998 E17.73529
G1 X27.933 Y132.695 E17.8934
G1 X26.963 Y132.276 E17.94612
G1 X26.6 Y132.101 E17.96622
G1 X25.946 Y131.75 E18.00325
G1 X25.147 Y131.308 E18.04881
G1 X24.561 Y130.973 E18.08248
G1 X24.185 Y130.737 E18.10463
G1 X23.6 Y130.332 E18.14013
G1 X22.873 Y129.814 E18.18466
G1 X22.299 Y129.395 E18.22012
G1 X21.982 Y129.142 E18.24035
G1 X21.399 Y128.636 E18.27887
G1 X20.728 Y128.036 E18.32377
G1 X20.233 Y127.583 E18.35725
G1 X19.903 Y127.252 E18.38057
G1 X19.469 Y126.779 E18.4126
G1 X18.793 Y126.022 E18.46323
G1 X18.362 Y125.525 E18.49605
G1 X18.082 Y125.173 E18.51849
G1 X17.689 Y124.635 E18.55173
G1 X17.138 Y123.858 E18.59925
G1 X16.729 Y123.262 E18.63531
G1 X16.519 Y122.927 E18.65504
G1 X16.156 Y122.291 E18.69157
G1 X15.771 Y121.594 E18.7313
G1 X15.38 Y120.861 E18.77275
G1 X15.21 Y120.508 E18.79229
G1 X14.929 Y119.857 E18.82767
G1 X14.557 Y118.959 E18.87616
G1 X14.317 Y118.357 E18.90849
G1 X14.167 Y117.927 E18.93122
G1 X13.959 Y117.24 E18.96703
G1 X13.703 Y116.35 E19.01323
G1 X13.521 Y115.683 E19.04772
G1 X13.432 Y115.29 E19.06783
G1 X13.298 Y114.564 E19.10466
G1 X13.145 Y113.66 E19.1504
G1 X13.033 Y112.932 E19.18715
G1 X12.989 Y112.537 E19.20698
G1 X12.937 Y111.799 E19.24389
G1 X12.887 Y110.897 E19.28896
G1 X12.857 Y110.199 E19.32381
G1 X12.853 Y110.057 E19.3309
G1 X12.844 Y109.315 E19.36792
G1 X12.843 Y90.642 E20.29952
G1 X12.853 Y89.922 E20.33544
G1 X12.857 Y89.788 E20.34213
G1 X12.886 Y89.097 E20.37664
G1 X12.95 Y87.961 E20.4334
G1 X12.999 Y87.352 E20.46388
G1 X13.065 Y86.829 E20.49018
G1 X13.112 Y86.529 E20.50533
G1 X13.301 Y85.421 E20.56141
G1 X13.431 Y84.713 E20.59732
G1 X13.521 Y84.319 E20.61749
G1 X13.714 Y83.612 E20.65405
G1 X13.969 Y82.728 E20.69995
G1 X14.182 Y82.03 E20.73636
G1 X14.311 Y81.661 E20.75586
G1 X14.584 Y80.975 E20.7927
G1 X14.928 Y80.148 E20.83738
G1 X15.213 Y79.487 E20.87329
G1 X15.404 Y79.092 E20.89518
G1 X15.742 Y78.462 E20.93085
G1 X16.175 Y77.677 E20.97558
G1 X16.537 Y77.044 E21.01196
G1 X16.757 Y76.693 E21.03263
G1 X17.163 Y76.107 E21.06819
G1 X17.694 Y75.359 E21.11396
G1 X18.116 Y74.783 E21.14958
G1 X18.362 Y74.474 E21.16929
G1 X18.814 Y73.953 E21.2037
G1 X19.447 Y73.246 E21.25104
G1 X19.949 Y72.701 E21.28801
G1 X20.232 Y72.419 E21.30794
G1 X20.752 Y71.942 E21.34314
G1 X21.447 Y71.321 E21.38964
G1 X21.97 Y70.866 E21.42423
G1 X22.321 Y70.586 E21.44663
G1 X22.873 Y70.183 E21.48073
G1 X23.653 Y69.63 E21.52843
G1 X24.217 Y69.242 E21.56258
G1 X24.556 Y69.03 E21.58253
G1 X25.197 Y68.664 E21.61936
G1 X25.982 Y68.231 E21.66408
G1 X26.635 Y67.882 E21.70102
G1 X27.003 Y67.705 E21.72139
G1 X27.869 Y67.333 E21.76842
G1 X30.335 Y66.229 E21.90321
G1 X32.785 Y65.049 E22.03888
G0 F3600 X32.964 Y65.408
G1 F2400 X35.342 Y64.18 E22.17241
G1 X37.732 Y62.858 E22.30867
G1 X40.054 Y61.485 E22.44325
G1 X42.34 Y60.046 E22.57801
G1 X44.605 Y58.529 E22.71402
G1 X46.794 Y56.972 E22.84804
G1 X48.961 Y55.335 E22.98353
G1 X51.049 Y53.665 E23.11692
G1 X53.125 Y51.905 E23.2527
G1 X55.156 Y50.082 E23.38886
G1 X57.081 Y48.253 E23.52134
G1 X59.014 Y46.309 E23.65811
G1 X60.856 Y44.348 E23.79234
G1 X62.659 Y42.316 E23.92787
G1 X64.402 Y40.24 E24.0631
G1 X66.045 Y38.163 E24.19523
G1 X68.054 Y35.456 E24.36341
G1 X68.127 Y35.355 E24.36963
G1 X68.459 Y34.917 E24.39705
G1 X68.759 Y34.547 E24.42081
G1 X69.142 Y34.135 E24.44888
G1 X69.704 Y33.604 E24.48745
G1 X70.052 Y33.294 E24.5107
G1 X70.536 Y32.925 E24.54107
G1 X71.053 Y32.587 E24.57188
G1 X71.469 Y32.33 E24.59628
G1 X72.025 Y32.039 E24.62759
G1 X72.521 Y31.823 E24.65458
G1 X73.03 Y31.616 E24.68199
G1 X73.672 Y31.409 E24.71564
G1 X74.256 Y31.267 E24.74563
G1 X74.75 Y31.161 E24.77084
G1 X75.356 Y31.074 E24.80138
G1 X75.869 Y31.037 E24.82704
G1 X76.476 Y31.01 E24.85735
G1 X77.466 Y31.052 E24.90679
G1 X79.407 Y31.214 E25.00396
G1 X82.089 Y31.362 E25.13797
G1 X84.772 Y31.434 E25.27187
G1 X87.492 Y31.43 E25.40758
G1 X90.177 Y31.35 E25.54159
G1 X92.912 Y31.191 E25.67827
G1 X94.677 Y31.041 E25.76664
G1 X95.526 Y31.01 E25.80903
G1 X96.104 Y31.034 E25.83789
G1 X96.583 Y31.068 E25.86185
G1 X97.151 Y31.149 E25.89047
G1 X97.921 Y31.311 E25.92973
G1 X98.37 Y31.42 E25.95278
G1 X98.946 Y31.607 E25.98299
G1 X99.428 Y31.801 E26.00892
G1 X99.965 Y32.034 E26.03812
G1 X100.513 Y32.32 E26.06896
G1 X100.977 Y32.606 E26.09615
G1 X101.476 Y32.934 E26.12594
G1 X101.963 Y33.307 E26.15655
G1 X102.409 Y33.704 E26.18634
G1 X102.772 Y34.042 E26.21108
G1 X103.188 Y34.486 E26.24144
G1 X103.51 Y34.882 E26.2669
G1 X103.891 Y35.38 E26.29818
G1 X105.618 Y37.72 E26.44328
G1 X107.286 Y39.852 E26.57833
G1 X109.015 Y41.937 E26.71346
G1 X110.795 Y43.962 E26.84797
G1 X112.641 Y45.947 E26.98321
G1 X114.543 Y47.883 E27.11861
G1 X116.487 Y49.748 E27.25301
G1 X118.491 Y51.567 E27.38804
G1 X120.542 Y53.326 E27.52284
G1 X122.639 Y55.023 E27.65743
G1 X124.802 Y56.673 E27.79315
G1 X126.976 Y58.238 E27.92679
G1 X129.212 Y59.753 E28.06154
G1 X131.523 Y61.227 E28.19829
G1 X133.837 Y62.609 E28.33276
G1 X136.175 Y63.92 E28.46649
G1 X138.571 Y65.175 E28.60143
G1 X141.016 Y66.367 E28.73714
G1 X143.924 Y67.679 E28.8963
G1 X144.878 Y68.091 E28.94815
G1 X145.21 Y68.251 E28.96653
G1 X145.85 Y68.594 E29.00276
G1 X146.598 Y69.007 E29.04539
G1 X147.239 Y69.374 E29.08224
G1 X147.583 Y69.589 E29.10248
G1 X148.151 Y69.981 E29.13691
G1 X148.891 Y70.509 E29.18226
G1 X149.465 Y70.928 E29.21772
G1 X149.756 Y71.159 E29.23625
G1 X150.287 Y71.62 E29.27133
G1 X151 Y72.257 E29.31903
G1 X151.492 Y72.707 E29.3523
G1 X151.803 Y73.019 E29.37428
G1 X152.233 Y73.488 E29.40602
G1 X152.898 Y74.232 E29.45581
G1 X153.33 Y74.728 E29.48862
G1 X153.564 Y75.021 E29.50733
G1 X153.985 Y75.597 E29.54292
G1 X154.491 Y76.309 E29.5865
G1 X154.939 Y76.961 E29.62597
G1 X155.135 Y77.274 E29.64439
G1 X155.493 Y77.903 E29.6805
G1 X155.909 Y78.656 E29.72342
G1 X156.266 Y79.325 E29.76125
G1 X156.422 Y79.648 E29.77915
G1 X156.702 Y80.296 E29.81437
G1 X157.07 Y81.187 E29.86246
G1 X157.31 Y81.788 E29.89475
G1 X157.432 Y82.135 E29.9131
G1 X157.656 Y82.871 E29.95148
G1 X157.91 Y83.755 E29.99737
G1 X158.091 Y84.417 E30.03161
G1 X158.186 Y84.832 E30.05285
G1 X158.308 Y85.502 E30.08682
G1 X158.459 Y86.393 E30.13191
G1 X158.569 Y87.101 E30.16765
G1 X158.61 Y87.466 E30.18598
G1 X158.663 Y88.222 E30.22379
G1 X158.713 Y89.12 E30.26866
G1 X158.743 Y89.818 E30.30351
G1 X158.747 Y89.949 E30.31005
G1 X158.756 Y90.685 E30.34677
G1 X158.757 Y109.353 E31.27813
G1 X158.747 Y110.057 E31.31325
G1 X158.711 Y110.949 E31.35779
G1 X158.651 Y112.016 E31.41111
G1 X158.602 Y112.613 E31.44099
G1 X158.539 Y113.116 E31.46628
G1 X158.52 Y113.243 E31.47269
G1 X158.306 Y114.507 E31.53665
G1 X158.176 Y115.215 E31.57256
G1 X158.093 Y115.576 E31.59104
G1 X157.902 Y116.277 E31.62729
G1 X157.649 Y117.154 E31.67283
G1 X157.436 Y117.853 E31.70928
G1 X157.316 Y118.195 E31.72736
G1 X157.048 Y118.868 E31.76351
G1 X156.721 Y119.656 E31.80607
G1 X156.419 Y120.356 E31.8441
G1 X156.244 Y120.719 E31.86421
G1 X155.908 Y121.345 E31.89965
G1 X155.502 Y122.081 E31.94159
G1 X155.118 Y122.754 E31.98025
G1 X154.914 Y123.079 E31.99939
G1 X154.511 Y123.662 E32.03475
G1 X154.024 Y124.349 E32.07676
G1 X153.563 Y124.978 E32.11567
G1 X153.336 Y125.263 E32.13385
G1 X152.838 Y125.836 E32.17172
G1 X152.271 Y126.469 E32.21412
G1 X151.782 Y127.002 E32.25021
G1 X151.478 Y127.305 E32.27162
G1 X150.979 Y127.764 E32.30545
G1 X150.295 Y128.373 E32.35114
G1 X149.772 Y128.829 E32.38575
G1 X149.443 Y129.091 E32.40674
G1 X148.893 Y129.492 E32.44069
G1 X148.143 Y130.023 E32.48654
G1 X147.56 Y130.425 E32.52187
G1 X147.246 Y130.623 E32.54039
G1 X146.61 Y130.986 E32.57693
G1 X145.834 Y131.414 E32.62114
G1 X145.181 Y131.764 E32.6581
G1 X144.837 Y131.929 E32.67714
G1 X143.981 Y132.297 E32.72362
G1 X141.477 Y133.417 E32.86047
G1 X139.036 Y134.592 E32.99563
G1 X136.658 Y135.82 E33.12915
G1 X134.268 Y137.142 E33.26542
G1 X131.946 Y138.515 E33.4
G1 X129.66 Y139.954 E33.53476
G1 X127.395 Y141.471 E33.67077
G1 X125.206 Y143.028 E33.80478
G1 X123.061 Y144.648 E33.93889
G1 X120.908 Y146.369 E34.0764
G1 X118.896 Y148.077 E34.20807
G1 X116.863 Y149.902 E34.34437
G1 X114.902 Y151.765 E34.47932
G1 X112.986 Y153.692 E34.61489
G1 X111.144 Y155.652 E34.74908
G1 X109.341 Y157.684 E34.88461
G1 X107.598 Y159.76 E35.01985
G1 X105.955 Y161.837 E35.15197
G1 X103.946 Y164.544 E35.32016
G1 X103.873 Y164.645 E35.32637
G1 X103.541 Y165.083 E35.35379
